!!!SOCIAL_FUNCTION:	deer dance songs
!!!PDT:	1932
!!!OTL: No_76_The_Humming_Bird_Speaks.krn
!!!REG: Southwest
!!!LANG: Non-Tone
!!!LING_GROUP: Yuman-Cochimi
**kern
*staff1
=1-
*clefF4
*k[b-e-]
*M2/4
4G\
4d\
=2
4c\
4c\
=3
4B-\
4G\
=4
4B-\
8B-\L
8c\J
=5
4.G\
8F\
=6
2G\
=7||
*M3/4
2G\
4r
=8||
*M2/4
4B-\
4c\
=9
4B-\
4G\
=10
8G\
8r
4c\
=11||
*M3/4
4B-\
4G\
8.G\L
16F\Jk
=12
2G\
4r
=13||
*M2/4
4G\
8B-\L
8F\J
=14
4G\
8G\L
8G\J
=15||
*M3/4
4G\
4r
8r
8F\
=16||
*M2/4
4G\
8B-\L
8F\J
=17
4G\
8G\L
8G\J
=18
4G\
8r
8F\
=19
4F\
8G\L
8G\J
=20||
*M3/4
4G\
4G\
8G\L
8F\J
=21
4G\
8r
8F\
4G\
=22
2G\
4r
=23||
*M2/4
4G\
4d\
=24
4c\
4c\
=25
4c\
4c\
=26
4c\
8c\L
8G\J
=27
4.B-\
8G\
=28
4B-\
8B-\L
8c\J
=29
4.G\
8F\
=30
2G\
=31||
*M3/4
4G\
4r
4r
=32||
*M2/4
4B-\
4c\
=33||
*M3/4
4B-\
4G\
8G\L
8F\J
=34||
*M2/4
4c\
4B-\
=35
4G\
8.G\L
16F\Jk
=36||
*M3/4
4G\
4r
4r
=37||
*M2/4
4G\
8B-\L
8En\J
=38
4G\
4G\
=39
4G\
8r
8En\
=40
4G\
8A\L
8En\J
=41
4G\
4G\
=42
4G\
8r
8En\
=43||
*M3/4
4G\
8G\L
8G\J
4G\
=44||
*M2/4
4G\
8G\L
8En\J
=45||
*M3/4
4G\
8r
8En\
4G\
=46
2.G\
==
*-
